packages/ffe-icons/icons/open/300/sm/file_copy.svg

<svg xmlns="http://www.w3.org/2000/svg" height="20" viewBox="0 -960 960 960" width="20"><path d="M731.691-212.001H324.309q-26.308 0-45.308-19t-19-45.308v-551.382q0-26.308 19-45.308t45.308-19h282.769q12.684 0 24.418 4.616 11.735 4.615 21.582 14.461l123.844 123.844q9.846 9.847 14.461 21.582 4.616 11.734 4.616 24.418v426.769q0 26.308-19 45.308t-45.308 19Zm12.309-480H638.462q-17.884 0-30.172-12.289-12.289-12.288-12.289-30.172V-840H324.309q-4.616 0-8.463 3.846-3.846 3.847-3.846 8.463v551.382q0 4.616 3.846 8.463 3.847 3.846 8.463 3.846h407.382q4.616 0 8.463-3.846 3.846-3.847 3.846-8.463v-415.692Zm-563.691 624q-26.308 0-45.308-19t-19-45.308v-493.69q0-11.069 7.405-18.534 7.405-7.466 18.384-7.466 10.98 0 18.595 7.466Q168-637.068 168-625.999v493.69q0 4.616 3.846 8.463 3.847 3.846 8.463 3.846h397.69q11.069 0 18.534 7.405 7.466 7.404 7.466 18.384t-7.466 18.594Q589.068-68 577.999-68h-397.69ZM312-840v174.999V-840v576V-840Z"/></svg>

<svg xmlns="http://www.w3.org/2000/svg" height="20" viewBox="0 -960 960 960" width="20"><path d="M731.69-212H324.31Q298-212 279-231q-19-19-19-45.31v-551.38Q260-854 279-873q19-19 45.31-19h282.77q12.68 0 24.42 4.62 11.73 4.61 21.58 14.46l123.84 123.84q9.85 9.85 14.46 21.58 4.62 11.74 4.62 24.42v426.77Q796-250 777-231q-19 19-45.31 19ZM744-692H638.46q-17.88 0-30.17-12.29Q596-716.58 596-734.46V-840H324.31q-4.62 0-8.46 3.85-3.85 3.84-3.85 8.46v551.38q0 4.62 3.85 8.46 3.84 3.85 8.46 3.85h407.38q4.62 0 8.46-3.85 3.85-3.84 3.85-8.46V-692ZM180.31-68Q154-68 135-87q-19-19-19-45.31V-626q0-11.07 7.41-18.53 7.4-7.47 18.38-7.47 10.98 0 18.59 7.47Q168-637.07 168-626v493.69q0 4.62 3.85 8.46 3.84 3.85 8.46 3.85H578q11.07 0 18.53 7.4 7.47 7.41 7.47 18.39t-7.47 18.59Q589.07-68 578-68H180.31ZM312-840v175-175V-264v-576Z"/></svg>
